X:105
T:Mr. Abel Banks
R:Slow Strathspey
S:MacDonald - Skye Collection
N:pg.160
M:C
L:1/8
Q:1/4=140
K:C
E<E cA (AGE)D|E<E c>A G>c E>c|(3ABc GA (3AGE D2|C<C cd eE Gc:|
e<g g>a (3age d2|e<g e<a e<a e<c'|e<g g>a (ag/e/) de|cd ed cEGc|
e<g g>a (3age d2|e>g g>a (3gdd (3eBB|(3cBA (3GFD (cEE)D|C<C cd eEGc||
